X: 15282
T: William and Margret
%R: air, waltz
B: James Oswald "The Caledonian Pocket Companion" v.1 b.5 p.28 #2
S: https://ia800501.us.archive.org/18/items/caledonianpocket01rugg/caledonianpocket01rugg_bw.pdf
Z: 2020 John Chambers <jc:trillian.mit.edu>
M: 3/4
L: 1/8
K: Ddor
%%slurgraces 1
%%graceslurs 1
"_Slow"\
B | c2 B2 (A/B/d) | e2     d2    (A>G) |    c2 B2 (A/B/d) | {e2}d4 z ::\
D | DE G2 A>B     | c2 {Bc}d2 {B}(A>G) | {C}E2 G2 E>D     |     D4 z :|


